arkscan/icons/binance.svg

<svg viewBox="0 0 20 20" fill="none" xmlns="http://www.w3.org/2000/svg">
  <path
    d="M4.50735 10L2.2645 12.2458L0 10L2.26366 7.73417L4.50735 10ZM9.99043 4.51167L13.8534 8.37833L16.1179 6.11333L9.99043 0L3.86296 6.13333L6.12746 8.39833L9.99043 4.51167ZM17.7172 7.73417L15.4735 10L17.7372 12.2658L20 10L17.7172 7.73417ZM9.99043 15.4883L6.12746 11.6017L3.86296 13.8675L9.99043 20L16.1179 13.8667L13.8534 11.6017L9.99043 15.4883ZM9.99043 12.2467L12.2541 9.98L9.99043 7.735L7.72676 10L9.99043 12.2458V12.2467Z"
    fill="#FFAE10" />
</svg>

<svg viewBox="0 0 20 20" fill="none" xmlns="http://www.w3.org/2000/svg"><path d="m4.507 10-2.242 2.246L0 10l2.264-2.266L4.507 10ZM9.99 4.512l3.863 3.866 2.265-2.265L9.99 0 3.863 6.133l2.264 2.265L9.99 4.512Zm7.727 3.222L15.474 10l2.263 2.266L20 10l-2.283-2.266ZM9.99 15.488l-3.863-3.886-2.264 2.265L9.99 20l6.128-6.133-2.265-2.265-3.863 3.886Zm0-3.241 2.264-2.267L9.99 7.735 7.727 10l2.263 2.246Z" fill="#FFAE10"/></svg>
